X:2218
T:Untitled carval
C:Traditional
O:Isle of Man
S:Thomas Cowell, Marown.
Z:Clague collection
N:"The first carval that I learnt" - Dr.J.Clague.
B:Kiaull Vannin #218 
M:3/4 
L:1/4 
K:D 
B/A/|G2 A|B3/2 c/ d/c/|B2 A/G/|F3/2G/ A|G2 G|AB c|B2 G/A/|
B2 B|A2 A|G2 A|B2 B/A/|G2 B|F2 F|E2||

